!!!COM: Bach, Johann Sebastian
!!!OPR: Joh. Seb. Bachs vierstimmige Choralgesänge
!!!XEN: Four-part Chorales
!!!OTL: 39. Den Vater dort oben
!!!SCT: BWV 292
!!!SCA: Thematisch-systematisches Verzeichnis der musikalischen Werke Johann Sebastian Bach: Bach-Werke-Verzeichnis (Schmieder)
!!!YOR: Bach Gesellschaft Edition xxxix
!!!ENC: Steven Rasmussen
!!!CDT: 1685/3//-1750/7/28/
!!!OCY: Deutschland
!!!YEC: Copyright (c) 1994, 2000 Center for Computer Assisted Research in the Humanities
!!!YEM: Rights to all derivative editions reserved
!!!YEN: United States of America
**kern	**kern	**silbe	**kern	**silbe	**kern	**silbe
*I:[BASSO]	*I:[TENORE]	*I:[TENORE]	*I:[ALTO]	*I:[ALTO]	*I:[SOPRANO]	*I:[SOPRANO]
*clefF4	*clefGv2	*	*clefG2	*	*clefG2	*
*k[]	*k[]	*	*k[]	*	*k[]	*
*C:	*C:	*	*C:	*	*C:	*
*M4/4	*M4/4	*	*M4/4	*	*M4/4	*
=1-	=1-	=1-	=1-	=1-	=1-	=1-
4.C	4c	.	4e	.	4g	Den
.	4G	.	4d	.	4g	Va-
8BB	.	.	.	.	.	.
4AA	4c	.	8eL	.	4a	-ter
.	.	.	8f#J	.	.	.
8GGL	4d	.	4g	.	4b	dort
8FFJ	.	.	.	.	.	.
=2	=2	=2	=2	=2	=2	=2
4EE	8cL	.	4g	.	2cc	o-
.	8B-J	.	.	.	.	.
4FF	4A	.	4f	.	.	.
2CC;	2G;	.	(4f	.	2cc;	-ben
.	.	.	4e;)	.	.	.
=3	=3	=3	=3	=3	=3	=3
4.C	8cL	.	4g	.	4ee	wol-
.	8BJ	.	.	.	.	.
.	8AL	.	8f#L	.	4dd	-len
8BB	16BL	.	16gL	.	.	.
.	16AJJ	.	16f#JJ	.	.	.
8BBL	8GL	.	8eL	.	4cc	wir
8AAJ	8F#J	.	8aJ	.	.	.
8GGL	4G	.	8dL	.	4b	nun
16AAL	.	.	16cL	.	.	.
16BBJJ	.	.	16dJJ	.	.	.
=4	=4	=4	=4	=4	=4	=4
8CL	4.G	.	8eL	.	2a	lo-
8AAJ	.	.	8c	.	.	.
4D	.	.	8A	.	.	.
.	8F#	.	16dL	.	.	.
.	.	.	16cJJ	.	.	.
2GG;	2D;	.	2B;	.	2g;	-ben,
=5	=5	=5	=5	=5	=5	=5
(8EE	4B	.	4e	.	4g	der
4E)	.	.	.	.	.	.
.	4B	.	4e	.	4g	uns
8D	.	.	.	.	.	.
4C	4c	.	8eL	.	4a	als
.	.	.	8f#J	.	.	.
4BB	4d	.	4g	.	4b	ein
=6	=6	=6	=6	=6	=6	=6
4AA	4c	.	8gL	.	4cc	mil-
.	.	.	8fJ	.	.	.
4BB	8dL	.	8fL	.	4g	-der
.	8GJ	.	16eL	.	.	.
.	.	.	16dJJ	.	.	.
2C;	2c;	.	2e;	.	2g;	Gott
=7	=7	=7	=7	=7	=7	=7
4.F	4c	.	8fL	.	4a	gnÃ¤-
.	.	.	8eJ	.	.	.
.	8BL	.	8dL	.	4g	-dig-
8E	16cL	.	16eL	.	.	.
.	16BJJ	.	16dJJ	.	.	.
8EL	8AL	.	8cL	.	4f	-lich
8DJ	8dJ	.	8BJ	.	.	.
8CL	8GL	.	4c	.	4e	ge-
16DL	16FL	.	.	.	.	.
16EJJ	16GJJ	.	.	.	.	.
=8	=8	=8	=8	=8	=8	=8
8FL	8AL	.	4c	.	4d	-spei-
8DJ	8FJ	.	.	.	.	.
8GL	8DL	.	8cL	.	4d	-set
8GGJ	16GL	.	8BJ	.	.	.
.	16FJJ	.	.	.	.	.
2C;	2E;	.	2G;	.	2c;	hat,
=9	=9	=9	=9	=9	=9	=9
(4.C	(4e	und	4g	und	4cc	und
.	4d)	.	[4g	Chri-	4dd	Chri-
8BB)	.	.	.	.	.	.
4E	8GL	Chri-	8gL]	.	4cc	-stum
.	8AJ	.	8f#J	.	.	.
4D	8BL	-stum	4g	-stum	4b	sei-
.	16cL	.	.	.	.	.
.	16dJJ	.	.	.	.	.
=10	=10	=10	=10	=10	=10	=10
4C	8eL	.	4g	sei-	2a	-nen
.	8cJ	.	.	.	.	.
4D	8AL	.	4f#	-nen	.	.
.	16dL	.	.	.	.	.
.	16cJJ	.	.	.	.	.
2GG;	2B;	.	2g;	Sohn,	2g;	Sohn,
=11	=11	=11	=11	=11	=11	=11
8CL	4c	.	8eL	.	4g	durch
8DJ	.	.	8fJ	.	.	.
4E	4c	.	4g	.	4g	wel-
8FL	4c	.	8gL	.	4a	-chen
8EJ	.	.	16fL	.	.	.
.	.	.	16eJJ	.	.	.
4D	4d	.	4f	.	4b	der
=12	=12	=12	=12	=12	=12	=12
4.C	4G	.	8fL	.	4cc	Se-
.	.	.	8eJ	.	.	.
.	8.GL	.	4d	.	4g	-gen
8BB	.	.	.	.	.	.
.	16FJk	.	.	.	.	.
2C;	2E;	.	2c;	.	2g;	kommt
=13	=13	=13	=13	=13	=13	=13
4F	4F	.	8c	vom	4a	vom
.	.	.	4f	al-	.	.
(4C	8GL	al-	.	.	4g	al-
.	16cL	.	[8e	-ler-	.	.
.	16B-JJ	.	.	.	.	.
4D)	4A	.	8eL]	.	4f	-ler-
.	.	.	8dJ	.	.	.
8AAL	4A	-ler-	[4c	-hÃ¶ch-	4e	-hÃ¶ch-
8GGJ	.	.	.	.	.	.
=14	=14	=14	=14	=14	=14	=14
4FF	8AL	-hÃ¶ch-	8cL]	.	2d	-sten
.	8DJ	.	16BL	.	.	.
.	.	.	16AJJ	.	.	.
4GG	8DL	-sten	4B	-sten	.	.
.	16GL	.	.	.	.	.
.	16FJJ	.	.	.	.	.
2CC;	2E;	.	2G;	.	2c;	Thron.
==|!	==|!	==|!	==|!	==|!	==|!	==|!
*-	*-	*-	*-	*-	*-	*-
!!!RWG: Key is interpreted using the Humdrum key tool.
!!!URL-pdf: https://s9.imslp.org/files/imglnks/usimg/6/6b/IMSLP24489-PMLP09471-CCARH_Bach_Chorales.pdf#page=27 Musedata edition
!!!URL-pdf: https://s9.imslp.org/files/imglnks/usimg/7/7a/IMSLP04155-Bach_-_BGA_253-438.pdf#page=22 	Bach-Gesellschaft Ausgabe, Band 39 (pp.175-276) Leipzig: Breitkopf und Härtel, 1892. Plate B.W. XXXIX.
!!!END: 1994/05/16
!!!EMD: Converted from MuseData to Humdrum Dec 19, 2000, by Andreas Kornstaedt using muse2kern.
!!!EED: Craig Stuart Sapp
!!!EEV: 2024/03/31
!!!filter-keyboard: satb2gs
!!!title: @{OTL} (@{SCT})
